src/assets/repeat.svg

<svg fill="none" height="1080" viewBox="0 0 1920 1080" width="1920" xmlns="http://www.w3.org/2000/svg"><path d="m0 0h1920v1080h-1920z" fill="#a5b8fd"/><path d="m1596.54 709.96 91.43-91.429 164.57 164.572-91.43 91.428z" fill="#ffd9d0"/><path d="m1859.11 229.086c-18.29 68.267-88.46 108.78-156.73 90.488s-108.78-88.462-90.49-156.729c18.29-68.2665 88.46-108.779 156.73-90.487s108.78 88.462 90.49 156.728z" fill="#a5b8fd"/><path d="m252.617 399.919c28.654-8.827 43.661-38.016 50.346-71.508 10.055-50.373-8.278-108.075-101.246-169.905-58.152-38.675-104.3689 28.54-118.2551 43.175-13.8862 14.636-55.1036 68.763 5.7348 132.883 60.8383 64.12 134.7653 74.182 163.4203 65.355z" fill="#ffd9d0"/><path d="m998.72 749.749c28.65 8.827 43.66 38.016 50.35 71.508 10.05 50.373-8.28 108.075-101.25 169.905-58.152 38.678-104.368-28.54-118.255-43.175-13.886-14.636-55.103-68.763 5.735-132.883 60.839-64.12 134.765-74.182 163.42-65.355z" fill="#ffd9d0"/><path d="m643.132 117.667c-26-45.0327-151.728-60.7825-201.937-31.7946-47.62 27.4936-54.12 78.6556-35.403 123.9626s82.981 88.74 150.788 49.592c81.266-46.918 112.551-96.728 86.552-141.76z" fill="#a5b8fd"/><path d="m1517.75 831 30.25 112.877-225.75 60.493-30.25-112.879z" fill="#03be78"/><path d="m841.498 545.737 47.569-106.739 213.483 95.137-47.57 106.739z" fill="#03be78"/><path d="m312.896 737.482-36.722 137.049-219.2775-58.756 36.7221-137.048z" fill="#a7c5c3"/><path d="m1317.86 99.059 188.97 225.206c28.98-55.356 23.6-125.061-19.05-175.894-42.66-50.8339-110.37-68.2399-169.92-49.312z" fill="#f4d8fe"/><path d="m538.604 422.332-144.226 20.111-43.157 133.994 78.946 91.228 146.024-8.005 31.03-137.533z" fill="#a7c5c3"/><path d="m1049.53 324.744-144.228-20.111-43.156-133.994 78.945-91.2282 146.029 8.0053 31.03 137.5329z" fill="#a7c5c3"/><g fill="#a88dff"><path d="m351.221 989.776 241.786-241.786c27.968 67.078 14.664 147.298-39.912 201.874s-134.795 67.876-201.874 39.912z"/><path d="m1439.59 467.457c-39.75-1.999-81.54 7.3-113.6 22.215-39.09 19.332-37.22 68.801-29.56 92.682 7.66 23.88 67.94 38.724 82.93 40.399 15 1.674 109.89-31.342 139.18-61.328 29.28-29.985 38.85-60.38 19.03-75.312-19.81-14.932-58.23-16.657-97.98-18.656z"/></g></svg>

<svg width="1920" height="1080" viewBox="0 0 1920 1080" fill="none" xmlns="http://www.w3.org/2000/svg">
<rect width="1920" height="1080" fill="#A5B8FD"/>
<g style="mix-blend-mode:soft-light">
<path d="M1596.54 709.96L1687.97 618.531L1852.54 783.103L1761.11 874.531L1596.54 709.96Z" fill="#FFD9D0"/>
</g>
<g style="mix-blend-mode:soft-light">
<path d="M1859.11 229.086C1840.82 297.353 1770.65 337.866 1702.38 319.574C1634.11 301.282 1593.6 231.112 1611.89 162.845C1630.18 94.5785 1700.35 54.066 1768.62 72.358C1836.89 90.65 1877.4 160.82 1859.11 229.086Z" fill="#A5B8FD"/>
</g>
<g style="mix-blend-mode:soft-light">
<path d="M252.617 399.919C281.271 391.092 296.278 361.903 302.963 328.411C313.018 278.038 294.685 220.336 201.717 158.506C143.565 119.831 97.3481 187.046 83.4619 201.681C69.5757 216.317 28.3583 270.444 89.1967 334.564C150.035 398.684 223.962 408.746 252.617 399.919Z" fill="#FFD9D0"/>
</g>
<g style="mix-blend-mode:soft-light">
<path d="M998.72 749.749C1027.37 758.576 1042.38 787.765 1049.07 821.257C1059.12 871.63 1040.79 929.332 947.82 991.162C889.668 1029.84 843.452 962.622 829.565 947.987C815.679 933.351 774.462 879.224 835.3 815.104C896.139 750.984 970.065 740.922 998.72 749.749Z" fill="#FFD9D0"/>
</g>
<g style="mix-blend-mode:soft-light">
<path d="M643.132 117.667C617.132 72.6343 491.404 56.8845 441.195 85.8724C393.575 113.366 387.075 164.528 405.792 209.835C424.509 255.142 488.773 298.575 556.58 259.427C637.846 212.509 669.131 162.699 643.132 117.667Z" fill="#A5B8FD"/>
</g>
<g style="mix-blend-mode:soft-light">
<path d="M1517.75 831L1548 943.877L1322.25 1004.37L1292 891.491L1517.75 831Z" fill="#03BE78"/>
</g>
<g style="mix-blend-mode:soft-light">
<path d="M841.498 545.737L889.067 438.998L1102.55 534.135L1054.98 640.874L841.498 545.737Z" fill="#03BE78"/>
</g>
<g style="mix-blend-mode:soft-light">
<path d="M312.896 737.482L276.174 874.531L56.8965 815.775L93.6186 678.727L312.896 737.482Z" fill="#A7C5C3"/>
</g>
<g style="mix-blend-mode:soft-light">
<path d="M1317.86 99.059L1506.83 324.265C1535.81 268.909 1530.43 199.204 1487.78 148.371C1445.12 97.5371 1377.41 80.1311 1317.86 99.059Z" fill="#F4D8FE"/>
</g>
<g style="mix-blend-mode:soft-light">
<path d="M538.604 422.332L394.378 442.443L351.221 576.437L430.167 667.665L576.191 659.66L607.221 522.127L538.604 422.332Z" fill="#A7C5C3"/>
</g>
<g style="mix-blend-mode:soft-light">
<path d="M1049.53 324.744L905.302 304.633L862.146 170.639L941.091 79.4108L1087.12 87.4161L1118.15 224.949L1049.53 324.744Z" fill="#A7C5C3"/>
</g>
<g style="mix-blend-mode:soft-light">
<path d="M351.221 989.776L593.007 747.99C620.975 815.068 607.671 895.288 553.095 949.864C498.519 1004.44 418.3 1017.74 351.221 989.776Z" fill="#A88DFF"/>
</g>
<g style="mix-blend-mode:soft-light">
<path d="M1439.59 467.457C1399.84 465.458 1358.05 474.757 1325.99 489.672C1286.9 509.004 1288.77 558.473 1296.43 582.354C1304.09 606.234 1364.37 621.078 1379.36 622.753C1394.36 624.427 1489.25 591.411 1518.54 561.425C1547.82 531.44 1557.39 501.045 1537.57 486.113C1517.76 471.181 1479.34 469.456 1439.59 467.457Z" fill="#A88DFF"/>
</g>
</svg>
